**kern	**kern	**dynam
*part1	*part1	*part1
*staff2	*staff1	*
*I"Piano	*	*
*clefF4	*clefG2	*
*k[b-e-a-]	*k[b-e-a-]	*
=1	=1	=1
*	*^	*
4C 4G	(8ccL	4e-	.
.	8g)	.	.
8C 8G	8ccJ	8e-	.
=	=	=	=
4GG 4G	4b-	4d	.
8G 8B-	8g	8d	.
=	=	=	=
4C 4G	(8ccL	4e-	.
.	8g)	.	.
8C 8G	8ccJ	8e-	.
=	=	=	=
4GG 4G	4b-	4d	.
8C 8G	8g	8e-	.
=	=	=	=
4GG 4G	(8b-L	4d	.
.	8g)	.	.
8GG 8G	8b-J	8d	.
=	=	=	=
4AAn 4G	(8anL	4c#X	>
.	8en)	.	.
8AA 8G	8e-XJ	8c#	.
=	=	=	=
((4.D 4.F#X	(4.d	(4.cn	] p
*	*v	*v	*
=	=	=
((4.GG)) 4.Fn	((4.Bn)) 4.g	.
=	=	=
8CC:)) 8GG: 8E-:	8G)) 8c	sf
8r	8r	.
8r	8r	.
=	=	=
*^	*^	*
4.G	(8E-L	(8gL	8cL	.
.	8D	8bn	8f	.
.	8CJ)	8ccJ)	8e-J	.
*v	*v	*	*	*
*	*v	*v	*
=	=	=
*-	*-	*-
!!!system-decoration: {(s1,s2)}
